X: 104102
T: RACHAEL RAE
Q:"Reel."
R: Reel.
%R:reel
B: James Kerr "Merry Melodies" v.1 p.4 s.1 #2
Z: 2017 John Chambers <jc:trillian.mit.edu>
M: C
L: 1/8
K: D
|:\
D2FA d2Ac | d2fd e2cA |\
d2AF (BA)GF | EFGA (FD)D2 :|\
(de)fg a2fd | g2bg e2cA |
(de)fg a2fd | egfe fddA |\
defg fafd | g2bg e2cA |\
d2AF (BA)GF | EFGA (FD)D2 |]

%%sep 1 1 500
%%sep 1 1 500

